X:18367
T:Walking in Liffey Street
R:jig
C:Paul O'Shaughnessy
D:Altan: Harvest Storm
Z:Devin McCabe
M:6/8
L:1/8
K:G
Bc|:dge def|gdc BAG|CEG DGB|BAG ABc|
! dge def|gdc BAG|CEG DGB|cAF GBc|
!dge def|gdc BAG|CEG DGB|BAG ABc|
!dge fga|gdc BAG|CEG DGB|cAF GFG|
!~A3 ABc|BGB dBd|ecA dBG|AFD ABc|
!A2D ABc|BGB dBd|ecA dBG|cAF GFG|
!~A3 ABc|BGB dBd|ecA dBG|cBc A2G|
!FGA cdc|BGB dgf|ece dBd|cAF GBc||


